static/app-icons/light-theme/SecurityServices.svg

<svg xmlns="http://www.w3.org/2000/svg" viewBox="0 0 32 32"><defs><linearGradient id="a" x1="6" y1="25.5" x2="27" y2="25.5" gradientUnits="userSpaceOnUse"><stop offset=".1" stop-opacity="0"/><stop offset=".75"/></linearGradient><linearGradient id="c" y1="32" x2="32" gradientUnits="userSpaceOnUse"><stop offset=".2" stop-color="#8a3ffc"/><stop offset=".8" stop-color="#30b0ff"/></linearGradient><mask id="b" x="0" y="0" width="32" height="32" maskUnits="userSpaceOnUse"><path d="M15 29a9.011 9.011 0 01-9-9V7.618l9-4.5 11 5.5V6.382l-11-5.5-11 5.5V20a11 11 0 0022 0h-2a9.011 9.011 0 01-9 9z" fill="#fff"/><path fill="url(#a)" d="M6 19h21v13H6z"/></mask></defs><g data-name="Layer 2"><g data-name="Light theme icons"><g mask="url(#b)"><path fill="url(#c)" d="M0 0h32v32H0z"/></g><path d="M25 20a2.964 2.964 0 00-1.855.661L21 19.422v-1.606a3 3 0 10-2 0v1.606l-2.145 1.239A2.964 2.964 0 0015 20a3 3 0 103 3 2.937 2.937 0 00-.075-.647L20 21.155l2.075 1.2A2.937 2.937 0 0022 23a3 3 0 103-3zm-10 4a1 1 0 111-1 1 1 0 01-1 1zm5-10a1 1 0 11-1 1 1 1 0 011-1zm5 10a1 1 0 111-1 1 1 0 01-1 1z" fill="#001d6c"/></g></g></svg>

<svg xmlns="http://www.w3.org/2000/svg" xmlns:xlink="http://www.w3.org/1999/xlink" viewBox="0 0 32 32"><defs><style>.cls-1{fill:#fff;}.cls-2{fill:url(#linear-gradient);}.cls-3{mask:url(#mask);}.cls-4{fill:url(#linear-gradient-2);}.cls-5{fill:#001d6c;}</style><linearGradient id="linear-gradient" x1="6" y1="25.5" x2="27" y2="25.5" gradientUnits="userSpaceOnUse"><stop offset="0.1" stop-opacity="0"/><stop offset="0.75"/></linearGradient><mask id="mask" x="0" y="0" width="32" height="32" maskUnits="userSpaceOnUse"><path class="cls-1" d="M15,29a9.011,9.011,0,0,1-9-9V7.618l9-4.5,11,5.5V6.382L15,.882,4,6.382V20a11,11,0,0,0,22,0H24A9.011,9.011,0,0,1,15,29Z"/><rect class="cls-2" x="6" y="19" width="21" height="13"/></mask><linearGradient id="linear-gradient-2" y1="32" x2="32" gradientUnits="userSpaceOnUse"><stop offset="0.2" stop-color="#8a3ffc"/><stop offset="0.8" stop-color="#30b0ff"/></linearGradient></defs><g id="Layer_2" data-name="Layer 2"><g id="Light_theme_icons" data-name="Light theme icons"><g class="cls-3"><rect class="cls-4" width="32" height="32"/></g><path class="cls-5" d="M25,20a2.964,2.964,0,0,0-1.855.661L21,19.422V17.816a3,3,0,1,0-2,0v1.606l-2.145,1.239A2.964,2.964,0,0,0,15,20a3,3,0,1,0,3,3,2.937,2.937,0,0,0-.075-.647L20,21.155l2.075,1.2A2.937,2.937,0,0,0,22,23a3,3,0,1,0,3-3ZM15,24a1,1,0,1,1,1-1A1,1,0,0,1,15,24Zm5-10a1,1,0,1,1-1,1A1,1,0,0,1,20,14Zm5,10a1,1,0,1,1,1-1A1,1,0,0,1,25,24Z"/></g></g></svg>
